X: 54
T: Piano Sonata no. 16 in G major, Allegro vivace
C: Ludwig van Beethoven
%%abc-version 2.0
%%abcx-abcm2ps-target-version 5.9.1 (29 Sep 2008)
%%abc-creator hum2abc beta
%%abcx-conversion-date 2021/01/11 11:42:15
%%abc-edited-by Craig Stuart Sapp
%%abc-edited-by Craig Stuart Sapp
%%abcx-initial-encoding-date 2004/11/21
%%gracespace 0 6 6
%%humdrum-veritas 2009060282
%%humdrum-veritas-data 2504032243
%%linebreak <none>
%%barnumbers 0
L: 1/16
M: 2/4
Q: "Allegro vivace" 1/4=132
%%staves {1 2}
V: 1 clef=treble
V: 2 clef=bass
K: G
[V:1] g- [I:setbarnb 1]| 
[V:2] z | 
[V:1] g6fe | 
[V:2] [G,4B,4D4]z4 | 
[V:1] d^deB =dcBA ]|:  
[V:2] z8 ]|:  
[V:1] G4z2 z [B,DG]- | 
[V:2] z8 | 
[V:1] [B,2D2G2]>[B,2D2B2]- [B,3D3B3][B,DG]- | 
[V:2] !wedge![G,,2G,2] z2 !wedge![G,,2G,2] z2 | 
[V:1] [B,2D2G2] z2 z2 z [B,DG]- | 
[V:2] !wedge![G,,2G,2] z2z4 | 
[V:1] [B,2D2G2]>[D2G2B2d2]- [D3G3B3d3][B,DG]- | 
[V:2] !wedge![G,,2G,2] z2 !wedge![G,,2G,2] z2 | 
[V:1] [B,2D2G2] z2 z2 z [B,DGB]- | 
[V:2] !wedge![G,,2G,2] z2z4 | 
[V:1] [B,2D2G2B2]>[G2B2e2g2]- [G3B3e3g3][FAdf]- | 
[V:2] !wedge![G,,2G,2] z2 !wedge![E,,2E,2] z2 | 
[V:1] [F2A2d2f2] z2z4 | 
[V:2] !wedge![A,,2A,2] z2z4 | 
[V:1] !wedge![F2A2d2] z2 !wedge![E2G2A2^c2] z2 | 
[V:2] [A,,2A,2] z2 !wedge![A,,,2A,,2] z2 | 
[V:1] !wedge![D2F2A2d2] z2 z2 z =f- | 
[V:2] !wedge![D,,2D,2] z2z4 | 
[V:1] f6ed | 
[V:2] =F6ED | 
[V:1] =c^cdA =c_BAG | 
[V:2] =C^CDA, =C_B,A,G, | 
[V:1] =F4z2 z [A,CF]- | 
[V:2] =F,4z4 | 
[V:1] [A,2C2F2]>[A,2C2A2]- [A,3C3A3][A,C=F]- | 
[V:2] !wedge![=F,,2=F,2] z2 !wedge![F,,2F,2] z2 | 
[V:1] [A,2C2F2] z2 z2 z [A,C=F]- | 
[V:2] !wedge![=F,,2=F,2] z2z4 | 
[V:1] [A,2C2F2]>[C2=F2A2c2]- [C3F3A3c3][A,CF]- | 
[V:2] !wedge![=F,,2=F,2] z2 !wedge![F,,2F,2] z2 | 
[V:1] [A,2C2F2] z2 z2 z [A,C=FA]- | 
[V:2] !wedge![=F,,2=F,2] z2z4 | 
[V:1] [A,2C2F2A2]>[=F2A2d2=f2]- [F3A3d3f3][EGce]- | 
[V:2] !wedge![=F,,2=F,2] z2 !wedge![D,,2D,2] z2 | 
[V:1] [E2G2c2e2] z2z4 | 
[V:2] !wedge![G,,2G,2] z2z4 | 
[V:1] !wedge![E2G2c2] z2 !wedge![D2=F2G2B2] z2 | 
[V:2] !wedge![G,,2G,2] z2 !wedge![G,,,2G,,2] z2 | 
[V:1] !wedge![C2E2G2c2] z2 z2 z [EGce]- | 
[V:2] !wedge![C,,2C,2] z2z4 | 
[V:1] [E2G2c2e2]>[c2e2a2c'2]- [c3e3a3c'3][Bdgb]- | 
[V:2] !wedge![C,2C2] z2 !wedge![A,,2A,2] z2 | 
[V:1] [B2d2g2b2] z2z4 | 
[V:2] !wedge![D,2D2] z2z4 | 
[V:1] !wedge![B2d2g2] z2 !wedge![A2d2f2] z2 | 
[V:2] !wedge![D,2D2] z2 !wedge![D,,2D,2] z2 | 
[V:1] !wedge![B2d2g2] z2z4 | 
[V:2] !wedge![G,,2G,2] z2z4 | 
[V:1] !wedge![B2d2g2b2] z2 !wedge![A2d2f2a2] z2 | 
[V:2] !wedge![D,2D2] z2 !wedge![D,,2D,2] z2 | 
[V:1] !wedge![B2d2g2b2] z2z4 | 
[V:2] !wedge![G,,2G,2] z2z4 | 
[V:1] !wedge![d2g2b2d'2] z2 !wedge![d2f2a2d'2] z2 | 
[V:2] !wedge![D,2D2] z2 !wedge![D,,2D,2] z2 | 
[V:1] g^abf =agfe | 
[V:2] !wedge![G,,2G,2] z2z4 | 
[V:1] d^deB =dcBA | 
[V:2] D^DEB, =DCB,A, | 
[V:1] G^ABF =AGFE | 
[V:2] G,^A,B,F, =A,G,F,E, | 
[V:1] D^DEB, =DCB,A,[K:clef=bass] | 
[V:2] D,^D,E,B,, =D,C,B,,A,, | 
[V:1] G,^A,B,F, =A,G,F,E, | 
[V:2] G,,^A,,B,,F,, =A,,G,,F,,E,, | 
[V:1] D,^D,E,B,, =D,C,B,,A,, | 
[V:2] D,,^D,,E,,B,,, =D,,C,,B,,,A,,, | 
[V:1] G,,F,,G,,A,, _B,,=B,,C,^C, | 
[V:2] G,,,F,,,G,,,A,,, _B,,,=B,,,C,,^C,, | 
[V:1] D,^C,D,E, F,D,E,F, | 
[V:2] D,,^C,,D,,E,, F,,D,,E,,F,, | 
[V:1] G,F,G,A, _B,=B,C^C[K:clef=treble] | 
[V:2] G,,F,,G,,A,, _B,,=B,,C,^C, | 
[V:1] !wedge!DDFA !wedge!ddfa | 
[V:2] !wedge!D,D,F,A,[K:clef=treble] !wedge!DDFA | 
[V:1] !wedge!d'd'af !wedge!ddAF | 
[V:2] !wedge!ddAF[K:clef=bass] !wedge!DDA,F, | 
[V:1] !wedge!DDFA !wedge!ddfa | 
[V:2] !wedge!D,D,F,A,[K:clef=treble] !wedge!DDFA | 
[V:1] !wedge!d'd'af !wedge!ddAF | 
[V:2] !wedge!ddAF[K:clef=bass] !wedge!DDA,F, | 
[V:1] !wedge!DdAF[K:clef=bass] !wedge!DDA,F, | 
[V:2] !wedge!D,DA,F, !wedge!D,D,A,,F,, | 
[V:1] D,8- | 
[V:2] D,,8- | 
[V:1] !fermata!D,7[K:clef=treble]g- | 
[V:2] !fermata!D,,7z | 
[V:1] g6fe | 
[V:2] [G,4B,4D4]z4 | 
[V:1] d^deB =dcBA | 
[V:2] z8 | 
[V:1] G4z2 z [B,DG]- | 
[V:2] z8 | 
[V:1] [B,2D2G2]>[B,2D2B2]- [B,3D3B3][B,DG]- | 
[V:2] !wedge![G,,2G,2] z2 !wedge![G,,2G,2] z2 | 
[V:1] [B,2D2G2] z2 z2 z [B,DG]- | 
[V:2] !wedge![G,,2G,2] z2z4 | 
[V:1] [B,2D2G2]>[D2G2B2d2]- [D3G3B3d3][B,DG]- | 
[V:2] !wedge![G,,2G,2] z2 !wedge![G,,2G,2] z2 | 
[V:1] [B,2D2G2] z2 z2 z [B,DGB]- | 
[V:2] !wedge![G,,2G,2] z2z4 | 
[V:1] [B,2D2G2B2]>[G2B2e2g2]- [G3B3e3g3][F^A^cf]- | 
[V:2] !wedge![G,,2G,2] z2 !wedge![E,,2E,2] z2 | 
[V:1] [F2A2c2f2] z2z4 | 
[V:2] !wedge![F,,2F,2] z2z4[K:clef=treble] | 
[V:1] !wedge![B2e2] z2 !wedge![B2^e2] z2 | 
[V:2] !wedge!G2 z2 !wedge!G2 z2 | 
[V:1] !wedge![^A2f2] z2 z2 z [B,EGB]- | 
[V:2] F2 z2z4[K:clef=bass] | 
[V:1] [B,2E2G2B2]>[G2B2e2g2]- [G3B3e3g3][F^A^cf]- | 
[V:2] !wedge![G,,2G,2] z2 !wedge![E,,2E,2] z2 | 
[V:1] [F2A2c2f2] z2z4 | 
[V:2] !wedge![F,,2F,2] z2z4 | 
[V:1] !wedge![E2B2] z2 !wedge![^E2B2] z2 | 
[V:2] !wedge!G,2 z2 !wedge!G,2 z2 | 
[V:1] !wedge![F2^A2] z2z4 | 
[V:2] !wedge!F,2 z2z4[K:clef=treble] | 
[V:1] !wedge![B2e2] z2 !wedge![B2^e2] z2 | 
[V:2] !wedge!G2 z2 !wedge!G2 z2 | 
[V:1] !wedge![^A2f2] z2z4 | 
[V:2] !wedge!F2 z2z4[K:clef=bass] | 
[V:1] !wedge![B,2E2B2] z2 !wedge![B,2^E2B2] z2 | 
[V:2] !wedge![G,,,2G,,2] z2 !wedge![G,,,2G,,2] z2 | 
[V:1] [^A,F^A]F^EF EFEF | 
[V:2] !wedge![F,,,2F,,2] z2z4 | 
[V:1] ^EFEF EF^GF | 
[V:2] z8 | 
[V:1] F2^d4^c2 | 
[V:2] B,,2 [F,2B,2^D2][F,2B,2D2][F,2B,2D2] | 
[V:1] !wedge!B2^d4B2 | 
[V:2] B,,2 [F,2B,2^D2][F,2B,2D2][F,2B,2D2] | 
[V:1] !wedge!^A2f4f2- | 
[V:2] F,,2 [F,2^C2E2][F,2C2E2][F,2C2E2] | 
[V:1] f2^gf e^de^c | 
[V:2] ^A,,2[F,2^C2E2] F,,2[F,2C2E2] | 
[V:1] !wedge!B2^d4^c2 | 
[V:2] B,,2 [F,2B,2^D2][F,2B,2D2][F,2B,2D2] | 
[V:1] !wedge!B2^d4B2 | 
[V:2] B,,2 [F,2B,2^D2][F,2B,2D2][F,2B,2D2] | 
[V:1] ^A2^cB ABcA | 
[V:2] F,,2 [F,2^C2E2][F,2C2E2][F,2C2E2] | 
[V:1] !wedge!B2 z2z4 | 
[V:2] B,,B,=A,=G, F,E,=D,^C, | 
[V:1] [B,=D]F[B,D]F [B,D]F[B,D]F | 
[V:2] !wedge!B,,2D,4^C,2 | 
[V:1] [B,D]F[B,D]F [B,D]F[B,D]F | 
[V:2] !wedge!B,,2D,4B,,2 | 
[V:1] [^CE]F[CE]F [^A,C]F[A,C]F | 
[V:2] !wedge!^A,,2!sfz!F,4F,2- | 
[V:1] [^A,^C]F[A,C]F [A,C]F[A,C]F | 
[V:2] F,2G,F, E,D,E,^C, | 
[V:1] [B,D]F[B,D]F [B,^E]^G[B,E]G | 
[V:2] !wedge!B,,2D,4D,2 | 
[V:1] [=E=G]A[EG]A [EG]A[EG]A | 
[V:2] !wedge!^C,2E,D, C,D,E,C, | 
[V:1] [DF]A[DF]A [^DA]^B[DA]B | 
[V:2] !wedge!D,2F,4F,2 | 
[V:1] [^G=B]^c[GB]c [GB]c[GB]c | 
[V:2] !wedge!^E,2^G,F, E,F,G,E, | 
[V:1] [FA]^c[FA]c [FA]c[FA]c | 
[V:2] !wedge!F,2A,4A,2 | 
[V:1] F^dBd GeBe | 
[V:2] A,2B,,4G,2 | 
[V:1] E^cAc F=dAd | 
[V:2] G,2A,,4F,2 | 
[V:1] DBGB E^cGc | 
[V:2] F,2G,,4E,2 | 
[V:1] ^C^AFA B,BB,B | 
[V:2] E,6D,2 & E,2F,,2G,,4 | 
[V:1] GgGg ^C^cFf | 
[V:2] D,2^C,2B,,2^A,,2 & E,,4F,,4 | 
[V:1] [B,2B2]d4d2 | 
[V:2] [B,,,2B,,2] [B,2D2][B,2D2][B,2D2] | 
[V:1] ^c2 ed cdec | 
[V:2] =A,,2 [A,2^C2E2][A,2C2E2][A,2C2E2] | 
[V:1] d2f4f2 | 
[V:2] D,2[K:clef=treble] [D2F2][D2F2][D2F2][K:clef=bass] | 
[V:1] ^e2 ^gf efge | 
[V:2] ^C,2[K:clef=treble] [^C2^E2^G2][C2E2G2][C2E2G2][K:clef=bass] | 
[V:1] f2a4a2 | 
[V:2] F,2[K:clef=treble] [F2A2][F2A2][F2A2][K:clef=bass] | 
[V:1] a4-agfg & z B^ABB4- | 
[V:2] ^D,2[^D2F2] E,2[E2G2] | 
[V:1] g4-gf^ef & B=A^GAA4- | 
[V:2] ^C,2[^C2E2] =D,2[=D2F2] | 
[V:1] f4-f=efe- & A=GFGG4 | 
[V:2] B,,2[B,2D2] ^C,2[^C2E2] | 
[V:1] eefe Fded & F2 z2 F2 z2 | 
[V:2] ^A,,2[^A,2^C2] B,,2[B,2D2] | 
[V:1] G^cdc E^ABA & E2 z2 ^C2 z2 | 
[V:2] E,,2E,2 F,,2F,2 | 
[V:1] B4z2 d2 & z2 [D2F2][D2F2][D2F2] | 
[V:2] z2 F,2F,2F,2 & B,,4z4 | 
[V:1] ^c6^A2 & [E2F2][E2F2]F2[E2F2] | 
[V:2] F,2F,2F,2F,2 & F,,8 | 
[V:1] B4z2 ^d2 & z2 [^D2F2][D2F2][D2F2] | 
[V:2] z2 F,2F,2F,2 & B,,4z4 | 
[V:1] ^c6^A2 & [E2F2][E2F2][E2F2][E2F2] | 
[V:2] F,2F,2F,2F,2 & F,,8 | 
[V:1] B4z2 =d2 & z2 [=D2F2][D2F2][D2F2] | 
[V:2] z2 F,2F,2F,2 & B,,4z4 | 
[V:1] ^c6^A2 & [E2F2][E2F2][E2F2][E2F2] | 
[V:2] F,2F,2F,2F,2 & F,,8 | 
[V:1] B2d2^c2^A2 & [D2F2][D2F2][E2F2][E2F2] | 
[V:2] F,2F,2F,2F,2 & B,,4F,,4 | 
[V:1] B2d2^c2^A2 & [D2F2][D2F2][E2F2][E2F2] | 
[V:2] F,2F,2F,2F,2 & B,,4F,,4 | 
[V:1] B2d2^c2^A2 & [D2F2][D2F2][E2F2][E2F2] | 
[V:2] F,2F,2F,2F,2 & B,,4F,,4 | 
[V:1] B2d2^c2^A2 & [D2F2][D2F2][E2F2][E2F2] | 
[V:2] F,2F,2F,2F,2 & B,,4F,,4 | 
[V:1] [D4F4B4]z2[K:clef=bass] z [F,B,D]- | 
[V:2] [B,,4F,4]z4 | 
[V:1] [F,4B,4D4]z2 z [D,F,B,]- | 
[V:2] [B,,,4B,,4]z4 | 
[V:1] [D,4F,4B,4]z4 | 
[V:2] [B,,,4B,,4]z4 | 
[V:1] B,,2 z2 D,2[K:clef=treble] z g- | 
[V:2] B,,,2 z2 D,,2 z2 | 
[V:1] g6fe | 
[V:2] !wedge![G,,,4G,,4]z4 | 
[V:1] d^deB =d=cBA :|]  
[V:2] z8 :|]  
[V:1] G4z2 z [B,DG]- | 
[V:2] z8 | 
[V:1] [B,2D2G2]>[B,2D2B2]- .[B,3D3B3][B,DG]- | 
[V:2] !wedge![G,,2G,2] z2 !wedge![G,,2G,2] z2 | 
[V:1] [B,2D2G2] z2 z2 z [B,DG]- | 
[V:2] !wedge![G,,2G,2] z2z4 | 
[V:1] [B,2D2G2]>[D2G2B2d2]- [D3G3B3d3][B,DG]- | 
[V:2] !wedge![G,,2G,2] z2 !wedge![G,,2G,2] z2 | 
[V:1] [B,2D2G2] z2 z2 z [G,G]- | 
[V:2] !wedge![G,,2G,2] z2z4 | 
[V:1] [G,2G2]>[G2g2]- [G3g3][G,G]- | 
[V:2] !wedge![=F,,2=F,2] z2 !wedge![F,2B,2D2] z2 | 
[V:1] [G,2G2]>[G2g2]- [G3g3][G,G]- | 
[V:2] !wedge![_E,,2_E,2] z2 !wedge![E,2G,2C2] z2 | 
[V:1] [G,2G2]>[G2g2]- [G3g3][G,G]- | 
[V:2] !wedge![D,,2D,2] z2 !wedge![D,2=F,2B,2] z2 | 
[V:1] [G,2G2] z2 z2 z c- | 
[V:2] !wedge![C,,2_E,,2G,,2C,2] z2z4[K:clef=treble] | 
[V:1] c2>_e2- e3c- | 
[V:2] !wedge![C2_E2G2] z2 !wedge![C2E2G2] z2 | 
[V:1] c2 z2 z2 z c- | 
[V:2] !wedge![C2_E2G2] z2z4 | 
[V:1] c2>c'2- c'3c- | 
[V:2] !wedge![C2_E2G2] z2 !wedge![C2E2G2] z2 | 
[V:1] c2 z2 z2 z [Cc]- | 
[V:2] !wedge![C2_E2G2] z2z4[K:clef=bass] | 
[V:1] [C2c2]>[c2c'2]- [c3c'3][Cc]- | 
[V:2] !wedge![_B,,2_B,2] z2[K:clef=treble] [_B,2=E2G2] z2[K:clef=bass] | 
[V:1] [C2c2]>[c2c'2]- [c3c'3][Cc]- | 
[V:2] !wedge![A,,2A,2] z2[K:clef=treble] !wedge![A,2C2=F2] z2[K:clef=bass] | 
[V:1] [C2c2]>[c2c'2]- [c3c'3][Cc]- | 
[V:2] !wedge![G,,2G,2] z2 !wedge![G,2_B,2E2] z2 | 
[V:1] [C2c2]>[c2c'2]- [c3c'3][=F=f]- | 
[V:2] !wedge![=F,,2=F,2] z2 !wedge![F,2A,2C2] z2 | 
[V:1] [F2f2]>[=f2=f'2]- [f3f'3][=Ff]- | 
[V:2] !wedge![_E,2_E2] z2[K:clef=treble] !wedge![_E2A2c2] z2 | 
[V:1] [F2f2]>[=f2=f'2]- [f3f'3][=Ff]- | 
[V:2] [K:clef=bass]!wedge![D,2D2] z2[K:clef=treble] !wedge![D2=F2_B2] z2[K:clef=bass] | 
[V:1] [F2f2]>[=f2=f'2-] [f3f'3][=Ff]- | 
[V:2] !wedge![C,2C2] z2[K:clef=treble] !wedge![C2_E2A2] z2[K:clef=bass] | 
[V:1] [fF]^c'd'a =c'_bag | 
[V:2] !wedge![_B,,2D,2=F,2_B,2] z2z4 | 
[V:1] =f^fgd =f_edc | 
[V:2] z8 | 
[V:1] _B^cdA =c_BAG | 
[V:2] _B,^CDA, =C_B,A,G, | 
[V:1] =F^FGD =F_EDC[K:clef=bass] | 
[V:2] =F,^F,G,D, =F,_E,D,C, | 
[V:1] _B,^CDA, =C_B,A,G, | 
[V:2] _B,,^C,D,A,, =C,_B,,A,,G,, | 
[V:1] =F,G,_A,G, F,_E,D,C, | 
[V:2] =F,,G,,_A,,G,, F,,_E,,D,,C,, | 
[V:1] =B,,2 z2[K:clef=treble]g4- | 
[V:2] =B,,,D,,C,,_E,, D,,=F,,E,,G,, | 
[V:1] g4!trill!=f4 | 
[V:2] =F,,_A,,G,,F,, _E,,D,,C,,B,,, | 
[V:1] _ed'_e'b d'c'_b_a | 
[V:2] C,,2 z2z4 | 
[V:1] g_ag^f g=f_ed | 
[V:2] z8 | 
[V:1] cd_eB dc_B_A | 
[V:2] CD_EB, DC_B,_A, | 
[V:1] G_AG^F G=F_ED | 
[V:2] G,_A,G,^F, G,=F,_E,D, | 
[V:1] CD_EB, DC_B,_A,[K:clef=bass] | 
[V:2] C,D,_E,B,, D,C,_B,,_A,, | 
[V:1] G,=A,_B,A, G,=F,=E,D, | 
[V:2] G,,=A,,_B,,A,, G,,=F,,=E,,D,, | 
[V:1] ^C,2 z2[K:clef=treble]a4- | 
[V:2] ^C,,E,,D,,=F,, E,,G,,F,,A,, | 
[V:1] a4!trill!g4 | 
[V:2] G,,_B,,A,,G,, =F,,E,,D,,^C,, | 
[V:1] =fef^c ed=c_B | 
[V:2] D,,2 z2z4 | 
[V:1] A_BA^G AG=F=E | 
[V:2] z8 | 
[V:1] DE=F^C ED=C_B,[K:clef=bass] | 
[V:2] D,E,=F,^C, E,D,=C,_B,, | 
[V:1] A,_B,CB, A,B,A,G, | 
[V:2] A,,_B,,C,B,, A,,B,,A,,G,, | 
[V:1] ^F,A,G,_B, A,CB,D | 
[V:2] ^F,,A,,G,,_B,, A,,C,B,,D, | 
[V:1] C_EDC _B,A,G,F, | 
[V:2] C,_E,D,C, _B,,A,,G,,F,, | 
[V:1] G,A,_B,A, G,=F,_E,D, | 
[V:2] G,,A,,_B,,A,, G,,=F,,_E,,D,, | 
[V:1] ^C,D,=E,D, C,G,E,C, | 
[V:2] ^C,,D,,=E,,D,, C,,G,,E,,C,, | 
[V:1] D,^F,A,F, _B,G,_E,^C, | 
[V:2] D,,^F,,A,,F,, _B,,G,,_E,,^C,, | 
[V:1] D,F,A,F, _B,G,_E,^C, | 
[V:2] D,,F,,A,,F,, _B,,G,,_E,,^C,, | 
[V:1] D,F,A,F, _B,G,_E,^C, | 
[V:2] D,,F,,A,,F,, _B,,G,,_E,,^C,, | 
[V:1] D,F,A,F, _B,G,_E,^C, | 
[V:2] D,,F,,A,,F,, _B,,G,,_E,,^C,, | 
[V:1] !wedge!D,D,F,A,[K:clef=treble] !wedge!DDFA | 
[V:2] !wedge!D,,D,,F,,A,, !wedge!D,D,F,A,[K:clef=treble] | 
[V:1] !wedge!ddfa !wedge!d'd'af | 
[V:2] !wedge!DDFA !wedge!ddAF[K:clef=bass] | 
[V:1] !wedge!ddAF[K:clef=bass] !wedge!DDA,F, | 
[V:2] !wedge!DDA,F, !wedge!D,D,A,,F,, | 
[V:1] !wedge!D,D,F,A, !wedge!DDA,F, | 
[V:2] !wedge!D,,D,,F,,A,, !wedge!D,D,A,,F,, | 
[V:1] !wedge!D,D,F,A,[K:clef=treble] !wedge!CDFA | 
[V:2] !wedge!D,,D,,F,,A,, !wedge!C,D,F,A,[K:clef=treble] | 
[V:1] !wedge!cdfa !wedge!c'c'af | 
[V:2] !wedge!CDFA !wedge!ccAF[K:clef=bass] | 
[V:1] !wedge!dcAF[K:clef=bass] !wedge!DCA,F, | 
[V:2] !wedge!DCA,F, !wedge!D,C,A,,F,, | 
[V:1] !wedge!D,D,F,A, !wedge!CCA,F, | 
[V:2] !wedge!D,,D,,F,,A,, !wedge!C,C,A,,F,, | 
[V:1] D,2>D,2- D,3D,- | 
[V:2] D,,4!wedge!F,4 | 
[V:1] D,2>D,2- D,3D,- | 
[V:2] !wedge!A,4!wedge!C4[K:clef=treble] | 
[V:1] D,2>D,2- D,3D,- | 
[V:2] !wedge!F4!wedge!A4 | 
[V:1] D,2>D,2- D,3D,- | 
[V:2] !wedge!c4!wedge!f4[K:clef=bass] | 
[V:1] D,2>D,2- D,3D,- | 
[V:2] !wedge!D,,4!wedge![F,4A,4] | 
[V:1] D,2>D,2- D,3D,- | 
[V:2] !wedge![A,4C4]!wedge![C4F4][K:clef=treble] | 
[V:1] D,2>D,2- D,3D,- | 
[V:2] !wedge![F4A4]!wedge![A4c4] | 
[V:1] D,2>D,2- D,3D,- | 
[V:2] !wedge![c4f4]!wedge![f4a4][K:clef=bass] | 
[V:1] D,2>D,2- D,3D,- | 
[V:2] !wedge!D,,4[K:clef=treble]!wedge![A,4C4] | 
[V:1] D,2>D,2- D,3D,- | 
[V:2] !wedge![C4F4]!wedge![F4A4] | 
[V:1] D,2>D,2- D,3D,- | 
[V:2] !wedge![A4c4]!wedge![c4f4] | 
[V:1] D,2>D,2- D,3D,- | 
[V:2] !wedge![f4a4]!wedge![a4c'4] | 
[V:1] D,4z2 z [D,F,A,C]- | 
[V:2] !wedge![c'4_e'4]z4[K:clef=bass] | 
[V:1] [D,4F,4A,4C4]z2 z D,- | 
[V:2] !wedge!D,,4z4[K:clef=treble] | 
[V:1] D,4z2 z [D,F,A,C]- | 
[V:2] !wedge![c'4_e'4]z4[K:clef=bass] | 
[V:1] [D,4F,4A,4C4]z2 z D,- | 
[V:2] !wedge!D,,4z4[K:clef=treble] | 
[V:1] D,4z2 z [D,F,A,C]- | 
[V:2] !wedge![c'4_e'4]z4[K:clef=bass] | 
[V:1] [D,4F,4A,4C4]z2 z [D,F,A,C]- | 
[V:2] !wedge!D,,4z4 | 
[V:1] [D,4F,4A,4C4]z4 | 
[V:2] !wedge!D,,4z4 | 
[V:1] z4z2 z [D,F,A,C]- | 
[V:2] z8 | 
[V:1] [D,4F,4A,4C4]z4 | 
[V:2] !wedge!_E,4z4 | 
[V:1] z4z2 z [D,F,A,C]- | 
[V:2] z8 | 
[V:1] [D,4F,4A,4C4]z4 | 
[V:2] !wedge!D,,4z4 | 
[V:1] z4[K:clef=treble]z2 z g- | 
[V:2] z8 | 
[V:1] g6fe | 
[V:2] !wedge![G,,,4G,,4]z4 | 
[V:1] d^deB =dcBA | 
[V:2] z8 | 
[V:1] G4z2 z [B,DG]- | 
[V:2] z8 | 
[V:1] [B,2D2G2]>[B,2D2B2]- [B,3D3B3][B,DG]- | 
[V:2] !wedge![G,,2G,2] z2 !wedge![G,,2G,2] z2 | 
[V:1] [B,2D2G2] z2 z2 z [B,DG]- | 
[V:2] !wedge![G,,2G,2] z2z4 | 
[V:1] [B,2D2G2]>[D2G2B2d2]- [D3G3B3d3][B,DG]- | 
[V:2] !wedge![G,,2G,2] z2 !wedge![G,,2G,2] z2 | 
[V:1] [B,2D2G2] z2 z2 z [B,DGB]- | 
[V:2] !wedge![G,,2G,2] z2z4 | 
[V:1] [B,2D2G2B2]>[G2B2e2g2]- [G3B3e3g3][FAdf]- | 
[V:2] !wedge![G,,2G,2] z2 !wedge![E,,2E,2] z2 | 
[V:1] [F2A2d2f2] z2z4 | 
[V:2] !wedge![A,,2A,2] z2z4 | 
[V:1] !wedge![F2A2d2] z2 !wedge![E2G2A2^c2] z2 | 
[V:2] !wedge![A,,2A,2] z2 !wedge![A,,,2A,,2] z2 | 
[V:1] !wedge![D2F2A2d2] z2 z2 z [EA=ce]- | 
[V:2] !wedge![D,,2D,2] z2z4 | 
[V:1] [E2A2c2e2]>[c2e2a2c'2]- [c3e3a3c'3][Bdgb]- | 
[V:2] !wedge![C,2C2] z2 !wedge![A,,2A,2] z2 | 
[V:1] [B2d2g2b2] z2z4 | 
[V:2] !wedge![D,2D2] z2z4 | 
[V:1] !wedge![B2d2g2] z2 !wedge![A2d2f2] z2 | 
[V:2] !wedge![D,2D2] z2 !wedge![D,,2D,2] z2 | 
[V:1] !wedge![B2d2g2] z2 z2 z [EAce]- | 
[V:2] !wedge![G,,2G,2] z2z4 | 
[V:1] [E2A2c2e2]>[c2e2a2c'2]- [c3e3a3c'3][B^dfb]- | 
[V:2] !wedge![C,2C2] z2 !wedge![A,,2A,2] z2 | 
[V:1] [B2d2f2b2] z2z4 | 
[V:2] !wedge![B,,2B,2] z2z4[K:clef=treble] | 
[V:1] !wedge![e2a2] z2 !wedge![e2^a2] z2 | 
[V:2] !wedge!c2 z2 !wedge!c2 z2 | 
[V:1] [^d2b2] z2z4 | 
[V:2] !wedge!B2 z2z4[K:clef=bass] | 
[V:1] !wedge![A2e2] z2 !wedge![^A2e2] z2 | 
[V:2] !wedge!C2 z2 C2 z2 | 
[V:1] !wedge![B2^d2] z2z4 | 
[V:2] !wedge!B,2 z2z4 | 
[V:1] !wedge![A,2E2A2] z2 [^A,2E2^A2] z2 | 
[V:2] !wedge![C,,2C,2] z2 !wedge![C,,2C,2] z2 | 
[V:1] !wedge![B,2^D2B2]^AB ABAB | 
[V:2] !wedge![B,,,2B,,2] z2z4 | 
[V:1] ^ABAB AB^cB | 
[V:2] z8 | 
[V:1] !wedge!B2^g4f2 | 
[V:2] E,2[K:clef=treble] [B,2E2^G2][B,2E2G2][B,2E2G2][K:clef=bass] | 
[V:1] !wedge!e2^g4e2 | 
[V:2] E,2[K:clef=treble] [B,2E2^G2][B,2E2G2][B,2E2G2][K:clef=bass] | 
[V:1] ^d2b4b2- | 
[V:2] B,,2[K:clef=treble] [B,2F2A2][B,2F2A2][B,2F2A2][K:clef=bass] | 
[V:1] b2^c'b a^gaf | 
[V:2] ^D,2[K:clef=treble][B,2F2A2][K:clef=bass] B,,2[K:clef=treble][B,2F2A2][K:clef=bass] | 
[V:1] !wedge!e2^g4f2 | 
[V:2] E,2[K:clef=treble] [B,2E2^G2][B,2E2G2][B,2E2G2][K:clef=bass] | 
[V:1] !wedge!e2^g4e2 | 
[V:2] E,2[K:clef=treble] [B,2E2^G2][B,2E2G2][B,2E2G2][K:clef=bass] | 
[V:1] !wedge!^d2fe defd | 
[V:2] B,,2[K:clef=treble] [B,2F2A2][B,2F2A2][B,2F2A2][K:clef=bass] | 
[V:1] e2 z2z4 | 
[V:2] E,E=D=C B,A,=G,F, | 
[V:1] [E=G]B[EG]B [EG]B[EG]B | 
[V:2] !wedge!E,2G,4F,2 | 
[V:1] [EG]B[EG]B [EG]B[EG]B | 
[V:2] !wedge!E,2G,4E,2 | 
[V:1] [FA]B[FA]B [^DF]B[DF]B | 
[V:2] !wedge!^D,2!sfz!B,4B,2- | 
[V:1] [^DF]B[DF]B [DF]B[DF]B | 
[V:2] B,2CB, A,G,A,F, | 
[V:1] [EG]B[EG]B [EG]B[EG]B | 
[V:2] !wedge!E,2G,4F,2 | 
[V:1] [EG]B[EG]B [EG_B]^c[EGB]c | 
[V:2] !wedge!E,2G,4G,2 | 
[V:1] [A=c]d[Ac]d [FA]d[FA]d | 
[V:2] F,A,G,B, A,CB,D | 
[V:1] [FA]d[FA]d [FA]d[FA]d | 
[V:2] CB,A,G, F,E,D,C, | 
[V:1] !wedge![G2d2]b4a2 | 
[V:2] B,,2[G,2B,2D2] G,,2[G,2B,2D2] | 
[V:1] !wedge!g2b4g2 | 
[V:2] G,,2 [G,2B,2D2][G,2B,2D2][G,2B,2D2] | 
[V:1] !wedge!f2d'4d'2- | 
[V:2] D,2 [A,2C2D2][A,2C2D2][A,2C2D2] | 
[V:1] d'2e'd' c'bc'a | 
[V:2] F,2[A,2C2D2] D,2[A,2C2D2] | 
[V:1] !wedge!g2b4a2 | 
[V:2] G,2[B,2D2] G,,2[G,2B,2D2] | 
[V:1] !wedge!g2b4g2 | 
[V:2] G,,2 [G,2B,2D2][G,2B,2D2][G,2B,2D2] | 
[V:1] !wedge!f2 ag fgaf | 
[V:2] D,2 [A,2C2D2][A,2C2D2][A,2C2D2] | 
[V:1] !wedge!g2 z2z4[K:clef=bass] | 
[V:2] G,,G,F,E, D,C,B,,A,, | 
[V:1] [G,B,]D[G,B,]D [G,B,]D[G,B,]D | 
[V:2] !wedge!G,,2B,,4A,,2 | 
[V:1] [G,B,]D[G,B,]D [G,B,]D[G,B,]D | 
[V:2] !wedge!G,,2B,,4G,,2 | 
[V:1] [A,C]D[A,C]D [F,A,]D[F,A,]D | 
[V:2] !wedge!F,,2!sfz!D,4D,2- | 
[V:1] [F,A,]D[F,A,]D [F,A,]D[F,A,]D | 
[V:2] D,2E,D, C,B,,C,A,, | 
[V:1] [G,B,]D[G,B,]D [^G,D]^E[G,D]E[K:clef=treble] | 
[V:2] !wedge!G,,2B,,4B,,2 | 
[V:1] [^C=E]F[CE]F [CE]F[CE]F | 
[V:2] ^A,,2^C,B,, A,,B,,C,A,, | 
[V:1] [B,D]F[B,D]F [B,=F]^G[B,F]G | 
[V:2] !wedge!B,,2D,4D,2 | 
[V:1] [E=G]A[EG]A [EG]A[EG]A | 
[V:2] ^C,2E,D, C,D,E,C, | 
[V:1] [D=F]A[DF]A [DF]A[DF]A | 
[V:2] !wedge!D,2=F,4F,2 | 
[V:1] DBGB EcGc | 
[V:2] =F,2G,,4E,2 | 
[V:1] ^C^A^FA DBFB | 
[V:2] E,2^F,,4D,2 | 
[V:1] B,^GEG =C=AEA | 
[V:2] D,2E,,4C,2 | 
[V:1] A,FDF G,GGg | 
[V:2] C,6B,,2 & C,2D,,2E,,4 | 
[V:1] EeEe A,ADd | 
[V:2] B,,2A,,2G,,2F,,2 & C,,4D,,4 | 
[V:1] [G,2G2]B4B2 | 
[V:2] [G,,,2G,,2] [G,2B,2][G,2B,2][G,2B,2] | 
[V:1] ^A2^cB ABcA | 
[V:2] F,,2 [F,2^A,2^C2][F,2A,2C2][F,2A,2C2] | 
[V:1] B2d4d2 | 
[V:2] B,,2 [B,2D2][B,2D2][B,2D2] | 
[V:1] ^c2ed cdec | 
[V:2] =A,,2 [A,2^C2E2][A,2C2E2][A,2C2E2] | 
[V:1] d2=f4f2 | 
[V:2] D,2 [D2=F2][D2F2][D2F2] | 
[V:1] =f4-fe^de & z G^FGG4- | 
[V:2] B,,2[B,2D2] =C,2[=C2E2] | 
[V:1] e4-e=d^cd & G^F^EFF4- | 
[V:2] ^A,,2[^A,2^C2] B,,2[B,2D2] | 
[V:1] d4-d=cdc- & F=E^DEE4 | 
[V:2] ^G,,2[^G,2B,2] =A,,2[=A,2=C2] | 
[V:1] ccdc DBcB & D2 z2z4 | 
[V:2] F,,2[F,2A,2] =G,,2[=G,2B,2] | 
[V:1] EABA CFGF & C2 z2 A,2 z2 | 
[V:2] C,,2C,2 D,,2D,2 | 
[V:1] G4z2 B2 & z2 [B,2D2][B,2D2][B,2D2] | 
[V:2] z2 D,2D,2D,2 & G,,4z4 | 
[V:1] A6F2 & [C2D2][C2D2][C2D2][C2D2] | 
[V:2] D,2D,2D,2D,2 & D,,8 | 
[V:1] G4z2 _B2 & z2 [_B,2D2][B,2D2][B,2D2] | 
[V:2] z2 D,2D,2D,2 & G,,4z4 | 
[V:1] A6F2 & [C2D2][C2D2][C2D2][C2D2] | 
[V:2] D,2D,2D,2D,2 & D,,8 | 
[V:1] G4z2 =B2 & z2 [=B,2D2][B,2D2][B,2D2] | 
[V:2] z2 D,2D,2D,2 & G,,4z4 | 
[V:1] A6F2 & [C2D2][C2D2][C2D2][C2D2] | 
[V:2] D,2D,2D,2D,2 & D,,8 | 
[V:1] G2B2A2F2 & [B,2D2][B,2D2][C2D2][C2D2] | 
[V:2] D,2D,2D,2D,2 & G,,4D,,4 | 
[V:1] G2B2A2F2 & [B,2D2][B,2D2][C2D2][C2D2] | 
[V:2] D,2D,2D,2D,2 & G,,4D,,4 | 
[V:1] G2B2A2F2 & [B,2D2][B,2D2][C2D2][C2D2] | 
[V:2] D,2D,2D,2D,2 & G,,4D,,4 | 
[V:1] G2B2A2F2 & [B,2D2][B,2D2][C2D2][C2D2] | 
[V:2] D,2D,2D,2D,2 & G,,4D,,4 | 
[V:1] [B,4D4G4]z2 z[K:clef=bass] [G,B,D]- | 
[V:2] [G,,4D,4]z4 | 
[V:1] [G,4B,4D4]z2 z [D,G,B,]- | 
[V:2] [G,,,4G,,4]z4 | 
[V:1] [D,4G,4B,4]z4 | 
[V:2] [G,,,4G,,4]z4 | 
[V:1] B,,2 z2 D,2[K:clef=treble] z g- | 
[V:2] B,,,2 z2 D,,2 z2 | 
[V:1] g6fe | 
[V:2] !wedge![G,,,4G,,4]z4 | 
[V:1] d^deB =dcBA | 
[V:2] z8 | 
[V:1] G^ABF =AGFE | 
[V:2] G,^A,B,F, =A,G,F,E, | 
[V:1] D^DEB, =DCB,A,[K:clef=bass] | 
[V:2] D,^D,E,B,, =D,C,B,,A,, | 
[V:1] G,^A,B,F, =A,G,F,E, | 
[V:2] G,,^A,,B,,F,, =A,,G,,F,,E,, | 
[V:1] D,^D,E,B,, =D,C,B,,A,, | 
[V:2] D,,^D,,E,,B,,, =D,,C,,B,,,A,,, | 
[V:1] G,,F,,G,,A,, _B,,=B,,C,^C, | 
[V:2] G,,,F,,,G,,,A,,, _B,,,=B,,,C,,^C,, | 
[V:1] D,^C,D,E, F,D,E,F, | 
[V:2] D,,^C,,D,,E,, F,,D,,E,,F,, | 
[V:1] G,F,G,A, _B,=B,C^C[K:clef=treble] | 
[V:2] G,,F,,G,,A,, _B,,=B,,C,^C, | 
[V:1] !wedge!DDFA !wedge!ddfa | 
[V:2] !wedge!D,D,F,A,[K:clef=treble] !wedge!DDFA | 
[V:1] !wedge!d'd'af !wedge!ddAF | 
[V:2] !wedge!ddAF[K:clef=bass] !wedge!DDA,F, | 
[V:1] !wedge!DDFA !wedge!ddfa | 
[V:2] !wedge!D,D,F,A,[K:clef=treble] !wedge!DDFA | 
[V:1] !wedge!d'd'af !wedge!ddAF | 
[V:2] !wedge!ddAF[K:clef=bass] !wedge!DDA,F, | 
[V:1] !wedge!DdAF[K:clef=bass] !wedge!DDA,F, | 
[V:2] !wedge!D,DA,F, !wedge!D,D,A,,F,, | 
[V:1] D,8- | 
[V:2] D,,8- | 
[V:1] !fermata!D,7[K:clef=treble][DFA]- | 
[V:2] !fermata!D,,7z | 
[V:1] [D8F8A8] | 
[V:2] [D,8A,8C8][K:clef=treble] | 
[V:1] !wedge!a2 z2 !wedge!c'2 z2 | 
[V:2] !wedge!A2 z2 !wedge!c2 z2 | 
[V:1] !wedge!d2 z2z4 | 
[V:2] !wedge!D2 z2z4 | 
[V:1] z4z2 z [DFA]- | 
[V:2] z8[K:clef=bass] | 
[V:1] [D6F6A6](3^cde | 
[V:2] [D,8A,8C8] | 
[V:1] d2 z2 z2 z [B,DGB]- | 
[V:2] z8 | 
[V:1] [B,6D6G6B6](3^cde | 
[V:2] [G,,8B,,8D,8G,8] | 
[V:1] d2 z2 z2 z [DF=c]- | 
[V:2] z8 | 
[V:1] [D4F4c4]-[D3F3c3][Fcf]- | 
[V:2] !wedge![D,2A,2C2] z2z4 | 
[V:1] [F4c4f4]-[F3c3f3][GBg]- | 
[V:2] !wedge![D,,2D,2] z2z4 | 
[V:1] !wedge![G2B2g2] z2 !wedge![B,2D2G2] z2 | 
[V:2] !wedge![G,,2G,2] z2 !wedge![G,,2G,2] z2 | 
[V:1] z4z2 z [DFA]- | 
[V:2] z8 | 
[V:1] [D6F6A6](3dfa | 
[V:2] [D,8A,8C8] | 
[V:1] d'2 z2 z2 z [B,DGB]- | 
[V:2] z8 | 
[V:1] [B,6D6G6B6](3dgb | 
[V:2] [G,,8B,,8D,8G,8] | 
[V:1] d'2 z2 z2 z [DFc]- | 
[V:2] z8 | 
[V:1] [D4F4c4]-[D3F3c3][Fcf]- | 
[V:2] !wedge![D,2A,2C2] z2z4 | 
[V:1] [F4c4f4]-[F3c3f3][GBg]- | 
[V:2] !wedge![D,,2D,2] z2z4 | 
[V:1] !wedge![G2B2g2] z2 !wedge![B,2D2G2] z2 | 
[V:2] !wedge![G,,2G,2] z2 !wedge![G,,2G,2] z2 | 
[V:1] z4z2 z [DFc]- | 
[V:2] z8 | 
[V:1] [D4F4c4]-[D3F3c3][Afa]- | 
[V:2] !wedge![D,2A,2C2] z2z4 | 
[V:1] [A4f4a4]-[A3f3a3][Bgb]- | 
[V:2] !wedge![D,,2D,2] z2z4 | 
[V:1] !wedge![B2g2b2] z2 [B,2D2G2B2] z2 | 
[V:2] !wedge![G,,2G,2] z2 !wedge![G,,2G,2] z2 | 
[V:1] z4z2 z [DAcd]- | 
[V:2] z8 | 
[V:1] [D4A4c4d4]-[D3A3c3d3][dfad']- | 
[V:2] !wedge![D,2A,2C2] z2z4 | 
[V:1] [d4f4a4d'4]-[d3f3a3d'3][Bdgb]- | 
[V:2] !wedge![D,,2D,2] z2z4 | 
[V:1] !wedge![B2d2g2b2] z2 !wedge!B,2 z2 | 
[V:2] !wedge![G,,2G,2] z2 !wedge![G,,2G,2] z2 | 
[V:1] z8 | 
[V:2] z8 | 
[V:1] !wedge![G2B2d2g2] z2[K:clef=bass] !wedge![B,,2D,2G,2] z2 | 
[V:2] !wedge![G,,,2G,,2] z2 !wedge![G,,,2G,,2] z2 | 
[V:1] z4z2 !fermata!z |]  
[V:2] z4z2 !fermata!z |]  


